!!!!SEGMENT: pl-sa--598-a-ix-78--005_anonim--keyboard-piece.krn
!!!cenid: 18xx:644
!!!COM: Anonim
!!!COM-rismid: pe30004985
!!!CDT:
!!!CNT:
!!!OTL: [Keyboard piece]
!!!PDT:
!!!AGN: Secular
!!!SMS-siglum: PL-SA
!!!SMS-shelfmark: 598/A IX 78
!!!SMS-shelfwork: 005 W
!!!SMS-variant:
!!!SMS-altvar:
!!!NIFC-rismid: 1001092521
!!!URL-scan: http://bc.bdsandomierz.pl/dlibra/publication/1406/edition/1374/content
!!!ONB-nifc: Str. 4
**kern	**kern
*part2	*part1
*staff2	*staff1
*Iempty	*Iempty
*I"	*I"
*clefF4	*clefG2
*k[b-]	*k[b-]
*F:	*F:
*M4/4	*M4/4
*met(c)	*met(c)
=1	=1
!	!LO:SIC:o:s:=:v:przekreślona tercja 4ddff
4FF/	4aa\ 4ff\
!LO:SIC:t:=:v:n=2:s=4F	!
!LO:TX:a:t=f	!
4A\ 4E\ 4C\	8.aa\L 8.ff\
.	16aa\Jk 16ff\
4A\ 4F\ 4C\	8aa\L 8ff\
.	8gg\ 8ee\
4r	8aa\ 8ff\
.	8bb-\J 8gg\
=2	=2
*rep	*
4FF/	4ccc\ 4aa\
!LO:SIC:t:=:v:n=2:s=4F	!
!LO:TX:a:t=f	!
4A\ 4E\ 4C\	8.ccc\L 8.aa\
.	16ccc\Jk 16aa\
4A\ 4F\ 4C\	8ccc\L 8aa\
.	16ddd\L 16bb-\
.	16ccc\JJ 16aa\
4r	8bb-\L 8gg\
.	8aa\J 8ff\
*Xrep	*
=3	=3
4C/ 4CC/	4gg\ 4b-\
4B-\ 4G\ 4C\	8gg\L 8b-\
.	8gg\J 8b-\
4B-\ 4G\ 4C\	8gg\L 8b-\
.	8gg\ 8b-\
4B-\ 4G\ 4C\	8aa\ 8cc\
.	8gg\J 8b-\
=4	=4
4c\ 4A\	4ff\ 4a\
4d\ 4B-\	4r
4e\ 4G\	4r
!LO:SIC:o:s:=:v:segno na kresce	!LO:SIC:o:s:=:v:segno na kresce
4ryy	4ryy
=5||	=5||
!	!LO:TX:a:t=[segno]
1ryy	4aa\ 4ff\
.	8aa\L 8ff\
.	8aa\J 8ff\
.	8aa\L 8ff\
.	8gg\ 8ee\
.	8.aa\ 8.ff\
.	16bb-\Jk 16gg\
=6	=6
1ryy	4ccc\ 4aa\
.	4ccc\ 4aa\
.	8ccc\L 8aa\
.	16ddd\L 16bb-\
.	16ccc\J 16aa\
.	8gg\ 8ee\
.	8ff\J 8dd\
!!LO:LB:g=original
=7	=7
1ryy	4gg\ 4b-\
.	4gg\ 4b-\
.	8gg\L 8b-\
.	8gg\ 8b-\
.	8aa\ 8cc\
.	8gg\J 8b-\
=8	=8
4r	4ff\ 4a\
4c\ 4A\	4r
!	!LO:SIC:o:s:=:v:fermata na kresce
4A\ 4F\	2ryy
4r	.
=9:||:	=9:||:;
4C/	4gg\ 4b-\
4B-\ 4G\	4gg\ 4b-\
4B-\ 4G\	8gg\L 8b-\
.	8gg\ 8b-\
4B-\ 4G\	8aa\ 8cc\
.	8gg\J 8b-\
=10	=10
4r	4ff\ 4a\
4c\ 4A\	4r
4A\ 4F\	4r
4r	4aa\ 4cc\
=11	=11
1ryy	4gg\ 4b-\
.	4gg\ 4b-\
.	8gg\L 8b-\
.	8gg\ 8b-\
.	8aa\ 8cc\
.	8gg\J 8b-\
=12	=12
4r	4ff\ 4a\
4c\ 4A\	4r
4B-\ 4G\	4r
!LO:SIC:o:s:=:v:segno na kresce	!LO:SIC:o:s:=:v:segno na kresce
4G\ 4C\	4r
!	!LO:TX:a:t=[segno]
=13||	=13||
4D/ 4DD/	4dd/ 4a/ 4f/
4ryy	4at/
4A/ 4AA/	4ee\ 4cc#X\ 4a\
4ryy	16b-/LL
.	16a/
.	16g#X/
.	16a/JJ
=14	=14
4D/ 4DD/	4ff\ 4dd\ 4a\
4D/ 4DD/	4ff\ 4dd\ 4a\
!LO:N:vis=8	!LO:N:vis=8
16r	16r
!LO:N:vis=8	!LO:N:vis=8
16D\LL	16ff\LL
!LO:N:vis=8	!LO:N:vis=8
16E\	16ee\
!LO:N:vis=8	!LO:N:vis=8
16F\JJ	16dd\JJ
8A\L 8E\	8ee\L 8cc#X\
8C#X\J	8ee\J 8cc#\
=15	=15
4.A/ 4.AA/	4.aa\ 4.a\
!LO:N:vis=4	!
!LO:SIC:s:=:v:8CC#	!LO:SIC:s:=:v:8c#
8C#X/ 8CC/	8cc#X/ 8c/
4D/ 4DD/	4dd/ 4d/
!LO:SIC:o:s:=:v:segno na kresce	!LO:SIC:o:s:=:v:segno na kresce
4ryy	4ryy
!	!LO:TX:a:t=[segno]
=||	=||
*-	*-
!!!system-decoration: [(s1,s2)]
!!!EED: Leszek Kubiak
!!!EST: 2020-12-14
!!!ENC: Andrzej Borzym
!!!END: 2020-06-20
